public/images/instagram-logo.svg

<?xml version="1.0" encoding="UTF-8" standalone="no"?>
<svg width="386px" height="386px" viewBox="0 0 386 386" version="1.1" xmlns="http://www.w3.org/2000/svg" xmlns:xlink="http://www.w3.org/1999/xlink" xmlns:sketch="http://www.bohemiancoding.com/sketch/ns">
    <!-- Generator: Sketch 3.4.2 (15855) - http://www.bohemiancoding.com/sketch -->
    <title>Rectangle 1</title>
    <desc>Created with Sketch.</desc>
    <defs></defs>
    <g id="Page-1" stroke="none" stroke-width="1" fill="none" fill-rule="evenodd" sketch:type="MSPage">
        <path d="M79.3354528,160.921875 L45,160.921875 L45,325.996789 C45,333.732196 51.2694511,340 59.0032111,340 L326.996789,340 C334.732196,340 341,333.730549 341,325.996789 L341,160.921875 L310.664547,160.921875 C313.490187,171.132624 315,181.889994 315,193 C315,259.27417 261.27417,313 195,313 C128.72583,313 75,259.27417 75,193 C75,181.889994 76.5098129,171.132624 79.3354528,160.921875 Z M0,39.9903229 C0,17.9042774 17.9073839,0 39.9903229,0 L346.009677,0 C368.095723,0 386,17.9073839 386,39.9903229 L386,346.009677 C386,368.095723 368.092616,386 346.009677,386 L39.9903229,386 C17.9042774,386 0,368.092616 0,346.009677 L0,39.9903229 Z M193,266 C233.869071,266 267,232.869071 267,192 C267,151.130929 233.869071,118 193,118 C152.130929,118 119,151.130929 119,192 C119,232.869071 152.130929,266 193,266 Z M268,56.9956966 C268,49.8183716 273.822093,44 280.995697,44 L329.004303,44 C336.181628,44 342,49.8220933 342,56.9956966 L342,105.004303 C342,112.181628 336.177907,118 329.004303,118 L280.995697,118 C273.818372,118 268,112.177907 268,105.004303 L268,56.9956966 Z" id="Rectangle-1" fill="#FFFFFF" sketch:type="MSShapeGroup"></path>
    </g>
</svg>

<?xml version="1.0" encoding="utf-8"?>
<!-- Generator: Adobe Illustrator 21.1.0, SVG Export Plug-In . SVG Version: 6.00 Build 0)  -->
<svg version="1.1" id="Layer_1" xmlns:sketch="http://www.bohemiancoding.com/sketch/ns"
	 xmlns="http://www.w3.org/2000/svg" xmlns:xlink="http://www.w3.org/1999/xlink" x="0px" y="0px" viewBox="0 0 386 386"
	 enable-background="new 0 0 386 386" xml:space="preserve">
<title>Rectangle 1</title>
<desc>Created with Sketch.</desc>
<g id="Page-1" sketch:type="MSPage">
	<path id="Rectangle-1" sketch:type="MSShapeGroup" d="M79.3,160.9H45V326c0,7.7,6.3,14,14,14h268c7.7,0,14-6.3,14-14V160.9h-30.3
		c2.8,10.2,4.3,21,4.3,32.1c0,66.3-53.7,120-120,120S75,259.3,75,193C75,181.9,76.5,171.1,79.3,160.9z M0,40C0,17.9,17.9,0,40,0h306
		c22.1,0,40,17.9,40,40v306c0,22.1-17.9,40-40,40H40c-22.1,0-40-17.9-40-40V40z M193,266c40.9,0,74-33.1,74-74s-33.1-74-74-74
		s-74,33.1-74,74S152.1,266,193,266z"/>
</g>
<path fill="#FFFFFF" d="M268,57c0-7.2,5.8-13,13-13h48c7.2,0,13,5.8,13,13v48c0,7.2-5.8,13-13,13h-48c-7.2,0-13-5.8-13-13V57z"/>
</svg>
